X:213
T:I'm But A Stranger Here
%%stretchlast false
M:4/4
L:1/4
K:Eb clef=C1
"^I"[E,EGe]2 "^i"[F,EAe] "^I¹"[G,EBe] | "^i"[B,FAe] "^V7"[B,FAd] [B,DAf]2 | "^V7¹"[DFAB]2 "^♯iii°"[B,DAB] [B,DAc] | "^I"[EGB]4 | [E,EGB]2 [E,B,Gg] "^vi¹"[E,C=Ag] | "^iii²"[D,DBg] "^V¹"[D,DBf] "^VI7²"[G,=Ecb]2 | "^vii¹"[F,Fdf]2 "^V²"[F,FBd] "^II7"[F,E=Ac] | "^V"[B,DB]4 | "^V7"[B,DAf]2 "^vi+"[B,CAg] "^V7"[B,DAf] | "^I²"[B,EGf] [B,EGe] [B,EGB]2 | "^♯iii°"[B,Dca]2 "^vi7"[CEBg] "^V7¹"[DABf] | "^I"[EGBf] "^IV²"[EAce] "^I"[EGB]2 | "^I7³"[_DEBg]2 "^VI"[C=Ecc'] "^vi7"[CEcb] | "^v"[Fcb] "^ii"[F,Fca] "^V/ii²"[G,=Ecg] "^ii¹"[A,Fcf] | "^I²"[B,GBe]2 "^♯iii"[B,ABf] "^♯iii°"[B,ABd] | "^I"[E,GBe]4 |]
